X:040
U: ~ = !turn!
%%topmargin 3cm
T:Crowley's #1
B:Traditional Irish Fiddle Tunes. Randy Miller and Jack Perron.
Z:Transcribed by Ralph Palmer
S:Michael Coleman
R:Reel
L:1/8
M:C|
K:D
d2 B |: A2 Ad B2 dB | AD ((3FED) AD ((3FED) | [F4A4] {/c}BABc | dfec {/e}dcdB :|
{/g}fefa g2 fg | eA ((3cBA) eA ((3cBA) | df ~f2 g2 fg | ((3agf) ((3gfe) fdde |
((3fga) fa g2 fg | eA ((3cBA) eA ((3cBA) | df f2 g2 fg | ((3agf) ((3gfe) fddB |]
